X:1
T: Lad O' Kyle
C:
R:Reel
Q: 232
K:G
M:4/4
L:1/8
|:d2|G2 G2 d2 GA|B2 A2 A2 BA|G2 G2 d2 GA|B2 g2 d2 zd|
ef gd Bc dB|ed cB A2 BA|G2 g2 de dc|B2 G2 G2 de|
g2 g2 ga bg|ag ab a2 ge|de ga ga ba|g2 d2 e2 dz|
ef gd Bc dB|ed cB Ac BA|G2 g2 de dc|B2 G2 G2:|
